X: 2
T: Gasp\'e Reel (R-30 with modifications)
M: 4/4
L: 1/8
R: reel
K: D
"D"[fA] z2 (3f/g/f/ e2d2|zAFA "D#dim"B2A2|"Em"[g2B2]zgf2eA|"A"BABc (3BdBA2|
"Em"e2f2 "A/C#"gf e2|"D"f2 g2 "Bm"a3|1f|"Em"e2ff gf eA|"A"B2c2 "D"d2 "D#dim"(3faf:|[2 a|"Em"b2 (3aba gfeA| "A"B2c2 "D"d4||

